X:148
M:2/4
L:1/8
K:G
|: B>c d2 | c>d e2 | B>c dc/B/ | cAfa | B>c d2 | c>d e2 | B/c/d?B/ A/B/c/A/ | G2 [G,2G2] :|

